X: 1387
T: Touch Me If You Dare - No.1
R: reel
B: O'Neill's 1850 #1387
O: Miss Kennedy
Z: Bob Safranek, rj s@gsp.org
Z: Compacted via repeats and multiple endings [JC]
Z: All ornaments (~) are turns
M: C|
L: 1/8
K: G
dc | BG~G2 AGFD | BGGd Bdgd |[1 BG~G2 AGED | EAAB A2 :|[2 B2BG AGED | EGGA G2 |]
z2 |: dega b2ag | ((3efg) dg egd [1 B | dega b2ag | eaab a2ge :|[2 c | B2BG AGED | EGGA G2 |]
